X: 10395
T: Donald Camerons Powder Horn
R: jig
M: 6/8
K: Amixolydian
A2 c c<Ac|e2 d c<Ac|ece Ace|aed c<Ac|
[1G2 B B<GB|d2 B B<GB|dcd GBd|ged B<GB:|
[2dee edc|Bdd dcB|c<Ac B<GB|A3 efg||
a3 e3|Ace c<Ac|e2 d c<Ac|aed c<Ac|
[1g3 d3|GBd B<GB|d2 B B<GB|ged B<GB:|
[2dee edc|Bdd dcB|c<Ac B<GB|A3 A2 a||
ecA c3|Ace c<Ac|e2 d c<Ac|aed c<Ac|
[1dBG B3|GBd B<GB|d2 B B<GB|ged B<GB:|
[2dee edc|Bdd dcB|c<Ac B<GB|A3 A2 e||
aga ece|Ace c<Ac|ece Ace|aed c<Ac|
[1gfg dcd|GBd B<GB|dcd GBd|ged B<GB:|
[2dee edc|Bdd dcB|c<Ac B<GB|A3 A2||

